c2corg_ui/static/img/documents/activities/hiking.svg

<?xml version="1.0" encoding="UTF-8" standalone="no"?>
<svg
   xmlns:dc="http://purl.org/dc/elements/1.1/"
   xmlns:cc="http://creativecommons.org/ns#"
   xmlns:rdf="http://www.w3.org/1999/02/22-rdf-syntax-ns#"
   xmlns:svg="http://www.w3.org/2000/svg"
   xmlns="http://www.w3.org/2000/svg"
   xmlns:sodipodi="http://sodipodi.sourceforge.net/DTD/sodipodi-0.dtd"
   xmlns:inkscape="http://www.inkscape.org/namespaces/inkscape"
   height="65"
   width="65"
   id="svg4470"
   version="1.1"
   inkscape:version="0.91 r13725"
   sodipodi:docname="hiking.svg">
  <metadata
     id="metadata4485">
    <rdf:RDF>
      <cc:Work
         rdf:about="">
        <dc:format>image/svg+xml</dc:format>
        <dc:type
           rdf:resource="http://purl.org/dc/dcmitype/StillImage" />
        <dc:title />
      </cc:Work>
    </rdf:RDF>
  </metadata>
  <defs
     id="defs4483">
    <font
       horiz-adv-x="1024"
       id="font4883"
       inkscape:label="font 1">
      <font-face
         units-per-em="1024"
         id="font-face4885"
         font-family="route-activity" />
      <missing-glyph
         d="M0,0h1000v1024h-1000z"
         id="missing-glyph4887" />
      <glyph
         glyph-name="glyph 1"
         id="glyph4889"
         unicode="hiking"
         d="m -3.5084746,1007.0169 c 0,16.141 -13.0850004,29.225 -29.2250004,29.225 -16.141,0 -29.226,-13.084 -29.226,-29.225 0,-16.14095 13.085,-29.22495 29.226,-29.22495 16.14,0 29.2250004,13.084 29.2250004,29.22495" />
      <glyph
         glyph-name="glyph 2"
         id="glyph4909" />
    </font>
  </defs>
  <sodipodi:namedview
     pagecolor="#ffffff"
     bordercolor="#666666"
     borderopacity="1"
     objecttolerance="10"
     gridtolerance="10"
     guidetolerance="10"
     inkscape:pageopacity="0"
     inkscape:pageshadow="2"
     inkscape:window-width="928"
     inkscape:window-height="1028"
     id="namedview4481"
     showgrid="false"
     inkscape:zoom="10.160581"
     inkscape:cx="-13.087486"
     inkscape:cy="33.727099"
     inkscape:window-x="3585"
     inkscape:window-y="24"
     inkscape:window-maximized="0"
     inkscape:current-layer="svg4470" />
  <g
     id="hiking"
     ng-click="editCtrl.pushToArray(route, 'activities', 'hiking', $event)"
     class="activity-icon"
     transform="matrix(0.99999706,0,0,-1.0000305,0.45155517,167.44463)">
    <title
       id="title4473">hiking</title>
    <g
       id="g306"
       transform="translate(42.43023,144.71482)">
      <g
         id="g4695">
        <g
           id="g4700">
          <path
             style="fill:#ffaa45;fill-opacity:1;fill-rule:nonzero;stroke:none"
             d="m 32.041016,3.4257812 c -16.141,1e-7 -29.2265629,13.0836098 -29.2265629,29.2246098 0,16.140999 13.0855629,29.224609 29.2265629,29.224609 16.14,0 29.224609,-13.08361 29.224609,-29.224609 0,-16.141 -13.084609,-29.2246098 -29.224609,-29.2246098 z m 1.701172,8.1582028 c 0.796112,-0.02229 1.994609,0.249297 2.724609,1.857422 0,0 0.935766,0.729969 0.759765,1.167969 -0.174998,0.438 -0.291578,0.407797 -0.642578,0.466797 0,0 -0.291015,0.496953 -0.291015,0.876953 0,0.38 0.05777,1.197656 -0.615235,0.847656 0,0 -0.2625,0.466907 -0.4375,0.378907 0,0 -0.117671,0.408203 -0.263672,0.408203 0,0 -0.08659,0.703234 -0.933593,0.615234 -0.848,-0.087 -1.024422,0.05888 -0.732422,0.671875 0.292,0.614 0.681937,2.247328 0.710937,2.861328 0.075,1.123 -0.0098,2.75 -0.0098,2.75 0,0 -0.144703,2.775672 -0.845703,3.388672 0,0 2.189437,1.637281 2.773437,1.988281 0,0 1.799004,-0.261123 2.273438,0.113281 l 0.01172,0 c 0.01646,-0.01398 0.699909,-0.589501 1.146485,-0.197265 0,0 0.689375,0.965453 0.734375,1.814453 0.004,0.286 -0.07697,0.523344 -0.292969,0.652344 l -0.396484,0.134765 c -0.0361,0.0069 -0.08495,0.0042 -0.123047,0.0098 l 2.21289,14.966797 0.314453,2.367187 c 0,0 0.118672,-0.07205 0.138672,0.126953 0.02,0.199001 0.171875,1.867188 0.171875,1.867188 0,0 0.10686,0.208766 -0.11914,0.259766 l 0.224609,0.408203 c 0,0 0.711938,0.02839 0.710938,0.27539 -0.002,0.247 -0.736328,0.357422 -0.736328,0.357422 0,0 0.120718,1.077672 0.01172,1.263672 l -0.111328,0.01563 -0.06055,0.0078 c 0,0 -0.213547,-0.347172 -0.310547,-1.201172 0,0 -0.804031,0.115328 -0.832031,-0.138672 -0.028,-0.254 0.558594,-0.464844 0.558594,-0.464844 l 0.144531,-0.386719 -0.0332,-0.08789 c 0,0 -0.08628,0.04239 -0.113281,-0.09961 -0.027,-0.143 -0.359375,-1.998046 -0.359375,-1.998046 0,0 -0.02069,-0.09347 0.07031,-0.105469 0,0 -0.174562,-1.192672 -0.351562,-2.388672 -0.136676,-0.924922 -1.72492,-11.496094 -2.251953,-15.005859 -0.780035,-0.02434 -1.608093,-0.213954 -1.75586,-0.492188 0,0 -0.174843,-0.232203 -0.964844,-0.408203 -0.789,-0.175 -1.956812,-0.497985 -2.132812,-0.583985 0,0 2.192781,7.423391 2.425781,8.650391 l -0.0293,0.320313 c 0,0 0.35086,1.255031 0.38086,1.957031 0,0 -0.873078,7.103422 -0.330078,8.107422 0,0 0.334953,0.542937 0.376953,0.835937 0.041,0.292 0.918906,0.335922 1.253906,0.544922 0.334,0.209 1.003891,-0.335014 1.212891,0.208984 0.208,0.543001 -0.04194,1.002922 -0.835938,1.044922 -0.795,0.042 -2.13275,0.125 -2.84375,0.125 -0.71,0 -1.087844,-0.08398 -1.589844,0.04102 -0.501,0.126 -1.63089,0.169031 -1.46289,-0.792969 0.167,-0.962 -0.04299,-0.87889 0.04102,-1.33789 0.084,-0.46 0.543922,-0.167907 0.669922,-1.128907 0.125,-0.962 0.669,0.291204 0,-2.216796 0,0 -0.879984,-1.379657 0.04102,-3.972657 0,0 -0.208985,-0.667953 -0.333985,-0.751953 1e-6,0 -9.22e-4,1.58786 -0.794921,2.00586 -0.795,0.416999 -1.839782,0.919874 -2.675782,1.421874 -0.837,0.502001 -1.295859,0.879844 -1.755859,1.339844 -0.46,0.459 -2.048797,0.918906 -2.591797,1.503906 -0.544,0.586002 -1.088844,0.584907 -1.589844,1.253907 -0.502,0.669 0.08302,2.133781 0.04102,2.425781 -0.041,0.293 0.502891,0.08298 0.837891,0.208984 0.334,0.125 0.709047,0.877922 -0.126954,0.919922 -0.835999,0.042 -2.298781,0.167032 -2.675781,-0.167968 -0.376,-0.334001 -2.47664,-2.692579 -2.93164,-2.767579 0,0 -1.043532,-1.148921 0.105468,-1.669921 1.148,-0.522001 2.294422,-0.729985 2.607422,-0.833985 0.313,-0.104 1.357375,-0.730422 1.984375,-1.357422 0,0 1.179735,-1.863047 2.552735,-2.623047 1.374,-0.76 2.045968,-1.081343 2.542968,-1.402343 0.497,-0.321 0.73175,-1.051641 0.46875,-1.431641 l -0.439453,0.0293 c 0,0 -0.349015,-0.08834 -0.291015,-0.527344 0.058,-0.438 -0.321657,-2.422687 -0.847657,-3.679687 -0.526,-1.258 -0.935546,-1.520313 -0.935546,-1.695313 -1e-6,0 -0.291124,-0.438139 -0.203126,-0.994141 1e-6,0 0.08733,-0.555562 -0.263671,-0.351562 -0.35,0.205 -0.965063,0.879125 -2.164063,0.703125 -1.197,-0.176 -3.155234,-1.550734 -3.740234,-2.427734 -0.584,-0.876 -0.320016,-0.875813 -0.291016,-2.132813 0.03,-1.257 -0.0558,-6.815953 -0.466797,-9.876953 l -0.322265,-0.410156 c 0,0 -0.3495,-0.378031 -0.4375,-0.582031 -0.087,-0.205 -0.32236,-2.045751 0.05664,-2.71875 0.381,-0.672 1.374547,-1.841782 2.310547,-2.425782 0.934,-0.585 1.226625,-0.526265 2.015625,-0.322265 0.789,0.205 1.344688,0.526453 1.929688,0.439453 0.584,-0.088 1.606625,0.43847 2.015625,0.730468 0.41,0.292001 1.140625,0.731141 1.140625,0.994141 0,0.262 0.61275,0.291703 1.34375,-0.0293 0.731,-0.322 2.044922,-1.375 2.044922,-1.375 0,0 -0.262797,-2.512109 1.783203,-3.037109 0,0 0.332878,-0.119436 0.810547,-0.132813 z"
             transform="matrix(1,0,0,-1,-42.43023,22.86759)"
             id="path31"
             inkscape:connector-curvature="0" />
          <g
             id="g4899">
            <g
               id="g4903" />
          </g>
        </g>
      </g>
    </g>
  </g>
</svg>

<?xml version="1.0" encoding="UTF-8" standalone="no"?>
<svg
   xmlns:dc="http://purl.org/dc/elements/1.1/"
   xmlns:cc="http://creativecommons.org/ns#"
   xmlns:rdf="http://www.w3.org/1999/02/22-rdf-syntax-ns#"
   xmlns:svg="http://www.w3.org/2000/svg"
   xmlns="http://www.w3.org/2000/svg"
   xmlns:sodipodi="http://sodipodi.sourceforge.net/DTD/sodipodi-0.dtd"
   xmlns:inkscape="http://www.inkscape.org/namespaces/inkscape"
   height="65"
   width="65"
   id="svg4470"
   version="1.1"
   inkscape:version="0.91 r13725"
   sodipodi:docname="hiking.svg">
  <metadata
     id="metadata4485">
    <rdf:RDF>
      <cc:Work
         rdf:about="">
        <dc:format>image/svg+xml</dc:format>
        <dc:type
           rdf:resource="http://purl.org/dc/dcmitype/StillImage" />
        <dc:title />
      </cc:Work>
    </rdf:RDF>
  </metadata>
  <defs
     id="defs4483">
    <font
       horiz-adv-x="1024"
       id="font4883"
       inkscape:label="font 1">
      <font-face
         units-per-em="1024"
         id="font-face4885"
         font-family="route-activity" />
      <missing-glyph
         d="M0,0h1000v1024h-1000z"
         id="missing-glyph4887" />
      <glyph
         glyph-name="glyph 1"
         id="glyph4889"
         unicode="hiking"
         d="m -3.5084746,1007.0169 c 0,16.141 -13.0850004,29.225 -29.2250004,29.225 -16.141,0 -29.226,-13.084 -29.226,-29.225 0,-16.14095 13.085,-29.22495 29.226,-29.22495 16.14,0 29.2250004,13.084 29.2250004,29.22495" />
      <glyph
         glyph-name="glyph 2"
         id="glyph4909" />
    </font>
  </defs>
  <sodipodi:namedview
     pagecolor="#ffffff"
     bordercolor="#666666"
     borderopacity="1"
     objecttolerance="10"
     gridtolerance="10"
     guidetolerance="10"
     inkscape:pageopacity="0"
     inkscape:pageshadow="2"
     inkscape:window-width="1855"
     inkscape:window-height="1056"
     id="namedview4481"
     showgrid="false"
     inkscape:zoom="10.160581"
     inkscape:cx="20.473587"
     inkscape:cy="33.727099"
     inkscape:window-x="3585"
     inkscape:window-y="24"
     inkscape:window-maximized="1"
     inkscape:current-layer="svg4470" />
  <g
     id="hiking"
     ng-click="editCtrl.pushToArray(route, 'activities', 'hiking', $event)"
     class="activity-icon"
     transform="matrix(1,0,0,-1,0,167.58241)">
    <title
       id="title4473">hiking</title>
    <g
       id="g306"
       transform="translate(42.43023,144.71482)">
      <g
         id="g4695">
        <g
           id="g4700">
          <path
             style="fill:#ffaa45;fill-opacity:1;fill-rule:nonzero;stroke:none"
             d="M 32.041016 3.4257812 C 15.900016 3.4257813 2.8144531 16.509391 2.8144531 32.650391 C 2.8144531 48.79139 15.900016 61.875 32.041016 61.875 C 48.181016 61.875 61.265625 48.79139 61.265625 32.650391 C 61.265625 16.509391 48.181016 3.4257812 32.041016 3.4257812 z M 33.742188 11.583984 C 34.5383 11.561689 35.736797 11.833281 36.466797 13.441406 C 36.466797 13.441406 37.402563 14.171375 37.226562 14.609375 C 37.051564 15.047375 36.934984 15.017172 36.583984 15.076172 C 36.583984 15.076172 36.292969 15.573125 36.292969 15.953125 C 36.292969 16.333125 36.350734 17.150781 35.677734 16.800781 C 35.677734 16.800781 35.415234 17.267688 35.240234 17.179688 C 35.240234 17.179688 35.122563 17.587891 34.976562 17.587891 C 34.976562 17.587891 34.889969 18.291125 34.042969 18.203125 C 33.194969 18.116125 33.018547 18.262 33.310547 18.875 C 33.602547 19.489 33.992484 21.122328 34.021484 21.736328 C 34.096484 22.859328 34.011719 24.486328 34.011719 24.486328 C 34.011719 24.486328 33.867016 27.262 33.166016 27.875 C 33.166016 27.875 35.355453 29.512281 35.939453 29.863281 C 35.939453 29.863281 37.738457 29.602158 38.212891 29.976562 L 38.224609 29.976562 C 38.241073 29.962587 38.924518 29.387061 39.371094 29.779297 C 39.371094 29.779297 40.060469 30.74475 40.105469 31.59375 C 40.109469 31.87975 40.0285 32.117094 39.8125 32.246094 L 39.416016 32.380859 C 39.379911 32.387752 39.33107 32.385043 39.292969 32.390625 L 41.505859 47.357422 L 41.820312 49.724609 C 41.820312 49.724609 41.938984 49.652563 41.958984 49.851562 C 41.978984 50.050563 42.130859 51.71875 42.130859 51.71875 C 42.130859 51.71875 42.237719 51.927516 42.011719 51.978516 L 42.236328 52.386719 C 42.236328 52.386719 42.948266 52.415109 42.947266 52.662109 C 42.945266 52.909109 42.210938 53.019531 42.210938 53.019531 C 42.210938 53.019531 42.331656 54.097203 42.222656 54.283203 L 42.111328 54.298828 L 42.050781 54.306641 C 42.050781 54.306641 41.837234 53.959469 41.740234 53.105469 C 41.740234 53.105469 40.936203 53.220797 40.908203 52.966797 C 40.880203 52.712797 41.466797 52.501953 41.466797 52.501953 L 41.611328 52.115234 L 41.578125 52.027344 C 41.578125 52.027344 41.491844 52.069734 41.464844 51.927734 C 41.437844 51.784734 41.105469 49.929688 41.105469 49.929688 C 41.105469 49.929688 41.084781 49.836219 41.175781 49.824219 C 41.175781 49.824219 41.001219 48.631547 40.824219 47.435547 C 40.687543 46.510625 39.099299 35.939453 38.572266 32.429688 C 37.792231 32.405352 36.964173 32.215734 36.816406 31.9375 C 36.816406 31.9375 36.641563 31.705297 35.851562 31.529297 C 35.062562 31.354297 33.89475 31.031312 33.71875 30.945312 C 33.71875 30.945312 35.911531 38.368703 36.144531 39.595703 L 36.115234 39.916016 C 36.115234 39.916016 36.466094 41.171047 36.496094 41.873047 C 36.496094 41.873047 35.623016 48.976469 36.166016 49.980469 C 36.166016 49.980469 36.500969 50.523406 36.542969 50.816406 C 36.583969 51.108406 37.461875 51.152328 37.796875 51.361328 C 38.130875 51.570328 38.800766 51.026314 39.009766 51.570312 C 39.217766 52.113313 38.967828 52.573234 38.173828 52.615234 C 37.378828 52.657234 36.041078 52.740234 35.330078 52.740234 C 34.620078 52.740234 34.242234 52.65625 33.740234 52.78125 C 33.239234 52.90725 32.109344 52.950281 32.277344 51.988281 C 32.444344 51.026281 32.234359 51.109391 32.318359 50.650391 C 32.402359 50.190391 32.862281 50.482484 32.988281 49.521484 C 33.113281 48.559484 33.657281 49.812688 32.988281 47.304688 C 32.988281 47.304688 32.108297 45.925031 33.029297 43.332031 C 33.029297 43.332031 32.820312 42.664078 32.695312 42.580078 C 32.695313 42.580078 32.69439 44.167938 31.900391 44.585938 C 31.105391 45.002937 30.060609 45.505812 29.224609 46.007812 C 28.387609 46.509813 27.92875 46.887656 27.46875 47.347656 C 27.00875 47.806656 25.419953 48.266562 24.876953 48.851562 C 24.332953 49.437564 23.788109 49.436469 23.287109 50.105469 C 22.785109 50.774469 23.370125 52.23925 23.328125 52.53125 C 23.287125 52.82425 23.831016 52.614234 24.166016 52.740234 C 24.500016 52.865234 24.875063 53.618156 24.039062 53.660156 C 23.203063 53.702156 21.740281 53.827188 21.363281 53.492188 C 20.987281 53.158187 18.886641 50.799609 18.431641 50.724609 C 18.431641 50.724609 17.388109 49.575688 18.537109 49.054688 C 19.685109 48.532687 20.831531 48.324703 21.144531 48.220703 C 21.457531 48.116703 22.501906 47.490281 23.128906 46.863281 C 23.128906 46.863281 24.308641 45.000234 25.681641 44.240234 C 27.055641 43.480234 27.727609 43.158891 28.224609 42.837891 C 28.721609 42.516891 28.956359 41.78625 28.693359 41.40625 L 28.253906 41.435547 C 28.253906 41.435547 27.904891 41.347203 27.962891 40.908203 C 28.020891 40.470203 27.641234 38.485516 27.115234 37.228516 C 26.589234 35.970516 26.179688 35.708203 26.179688 35.533203 C 26.179687 35.533203 25.888564 35.095064 25.976562 34.539062 C 25.976563 34.539062 26.063891 33.9835 25.712891 34.1875 C 25.362891 34.3925 24.747828 35.066625 23.548828 34.890625 C 22.351828 34.714625 20.393594 33.339891 19.808594 32.462891 C 19.224594 31.586891 19.488578 31.587078 19.517578 30.330078 C 19.547578 29.073078 19.461781 23.514125 19.050781 20.453125 L 18.728516 20.042969 C 18.728516 20.042969 18.379016 19.664938 18.291016 19.460938 C 18.204016 19.255938 17.968656 17.415187 18.347656 16.742188 C 18.728656 16.070188 19.722203 14.900406 20.658203 14.316406 C 21.592203 13.731406 21.884828 13.790141 22.673828 13.994141 C 23.462828 14.199141 24.018516 14.520594 24.603516 14.433594 C 25.187516 14.345594 26.210141 14.872064 26.619141 15.164062 C 27.029141 15.456063 27.759766 15.895203 27.759766 16.158203 C 27.759766 16.420203 28.372516 16.449906 29.103516 16.128906 C 29.834516 15.806906 31.148438 14.753906 31.148438 14.753906 C 31.148438 14.753906 30.885641 12.241797 32.931641 11.716797 C 32.931641 11.716797 33.264519 11.597361 33.742188 11.583984 z "
             transform="matrix(1,0,0,-1,-42.43023,22.86759)"
             id="path31" />
          <g
             id="g4899">
            <g
               id="g4903" />
          </g>
        </g>
      </g>
    </g>
  </g>
</svg>
